X: 305
T: Sal's Got Mud Between Her Toes
B: canberra pickers and fiddlers
B: tunes
L:1/8
Q: 1/4=100
K:D
V:1 
D2|:"D"F2F2 FEDE|F2A2A4|F2F2FEDE|FED2"A"E2E2|
"D"F2F2FEDE|FGA2A2A2|B2d2B2A2|1"A"FDE2"D"D2DE:|2"A"FDE2"D"D2AB||
|:"D"d2d2B2A2|d2d2f4|f3a fede|fed2"A"e2e2|
"D"f2a2fed2|"G"B2d2B2B2|"D"d2A2F2D2|1"A"EFE2"D"D2A2:|2"A"EFE2"D"D2A,2||
|:"D"D2D2B,2A,2|D2D2F4|D2D2B,2A,2|1"A"A,B,DE"D"D2A,B,:|2"A""^Tune Repeat"A,B,DE"D"D2DE||
% abcbook-tune_id 63da5934424dfe00e3cab42d
% abcbook-tune_composer_id 
% abcbook-link-0 https://www.youtube.com/watch?v=H0tO1FXQ1Cc
% abcbook-link-title-0 Sal&#39;s Got Mud Between Her Toes
% abcbook-boost 0
% abcbook-difficulty 0
% abcbook-tags old time tunes
% abcbook-tablature 
% abcbook-transpose 
% abcbook-tuning ADAE
% abcbook-lastupdated 1738708831657
% abcbook-src-url 
% abcbook-soundfonts 
% abcbook-repeats 1
%%gchordfont "itim-music,Itim" 20

